packages/ui-icons/svg/Solid/zipped.svg

<svg viewBox="0 0 1920 1920" version="1.1" xmlns="http://www.w3.org/2000/svg">
    <path d="M620.764706,0 L620.764706,282.352941 C620.764706,355.990588 668.2,418.108235 733.931765,441.487059 L733.931765,441.487059 L733.931765,564.705882 L620.764706,564.705882 L620.764706,677.647059 L733.931765,677.647059 L733.931765,790.588235 L620.764706,790.588235 L620.764706,903.529412 L733.931765,903.529412 L733.931765,1016.47059 L620.764706,1016.47059 L620.764706,1129.41176 L733.931765,1129.41176 L733.931765,1242.35294 L620.764706,1242.35294 L620.764706,1355.29412 L733.931765,1355.29412 L733.931765,1468.23529 L620.764706,1468.23529 L620.764706,1581.17647 L733.931765,1581.17647 L733.931765,1920 L169,1920 L169,0 L620.764706,0 Z M1185.47059,0 L1185.47059,564.705882 L1750.17647,564.705882 L1750.17647,1920 L846.872941,1920 L846.872941,1468.23529 L959.588235,1468.23529 L959.588235,1355.29412 L846.872941,1355.29412 L846.872941,1242.35294 L959.588235,1242.35294 L959.588235,1129.41176 L846.872941,1129.41176 L846.872941,1016.47059 L959.588235,1016.47059 L959.588235,903.529412 L846.872941,903.529412 L846.872941,790.588235 L959.588235,790.588235 L959.588235,677.647059 L846.872941,677.647059 L846.872941,441.261176 C912.378824,417.882353 959.588235,355.764706 959.588235,282.352941 L959.588235,282.352941 L959.588235,0 L1185.47059,0 Z M1298.41176,7.45411765 L1742.94824,451.764706 L1298.41176,451.764706 L1298.41176,7.45411765 Z M846.647059,0 L846.647059,282.352941 C846.647059,313.524706 821.235294,338.823529 790.176471,338.823529 C759.117647,338.823529 733.705882,313.524706 733.705882,282.352941 L733.705882,0 L846.647059,0 Z" stroke="none" stroke-width="1" fill-rule="evenodd"/>
</svg>

<svg viewBox="0 0 1920 1920" version="1.1" xmlns="http://www.w3.org/2000/svg">
    <path d="M733.932 1581.176V1920H169V0h451.765v282.353c0 73.638 47.435 135.755 113.167 159.134v123.219H620.765v112.941h113.167v112.941H620.765V903.53h113.167v112.942H620.765v112.94h113.167v112.942H620.765v112.941h113.167v112.941H620.765v112.941h113.167zm451.539-1016.47h564.705V1920H846.873v-451.765h112.715v-112.94H846.873v-112.942h112.715v-112.941H846.873V1016.47h112.715V903.529H846.873V790.59h112.715V677.646H846.873V441.261c65.506-23.379 112.715-85.496 112.715-158.908V0h225.883v564.706zM1298.41 7.454l444.537 444.31h-444.536V7.455zM733.707 0h112.941v282.353c0 31.172-25.412 56.47-56.47 56.47-31.06 0-56.471-25.298-56.471-56.47V0z" stroke="none" stroke-width="1" fill-rule="evenodd"/>
</svg>
